!!!COM: Palestrina, Giovanni Perluigi da
!!!OPR: Missa Laudate Dominum
!!!OMD: Kyrie
!!!OTL: First Section
**kern	**kern	**kern	**kern	**kern	**kern	**kern	**kern
*Ibass	*Itenor	*Icalto	*Icant	*Ibass	*Itenor	*Icalto	*Icant
!Bassus	!Tenor	!Altus	!Cantus	!Bassus	!Tenor	!Altus	!Cantus
*clefF4	*clefGv2	*clefG2	*clefG2	*clefF4	*clefGv2	*clefG2	*clefG2
*k[b-]	*k[b-]	*k[b-]	*k[b-]	*k[b-]	*k[b-]	*k[b-]	*k[b-]
*F:ion	*F:ion	*F:ion	*F:ion	*F:ion	*F:ion	*F:ion	*F:ion
*M4/2	*M4/2	*M4/2	*M4/2	*M4/2	*M4/2	*M4/2	*M4/2
=1	=1	=1	=1	=1	=1	=1	=1
0r	0r	0r	0r	0r	0r	1r	1f
.	.	.	.	.	.	1c	2cc
.	.	.	.	.	.	.	2cc
=2	=2	=2	=2	=2	=2	=2	=2
0r	0r	0r	0r	0r	0r	2f	2.cc
.	.	.	.	.	.	2f	.
.	.	.	.	.	.	.	4b-
.	.	.	.	.	.	2.f	1a
.	.	.	.	.	.	4e	.
=3	=3	=3	=3	=3	=3	=3	=3
0r	0r	0r	0r	0r	0r	2d	1.dd
.	.	.	.	.	.	4B-	.
.	.	.	.	.	.	4c	.
.	.	.	.	.	.	4d	.
.	.	.	.	.	.	4e	.
.	.	.	.	.	.	[2f	4cc
.	.	.	.	.	.	.	4b-
=4	=4	=4	=4	=4	=4	=4	=4
0r	0r	0r	0r	0r	1r	2f]	2a
.	.	.	.	.	.	2e	2g
.	.	.	.	.	1F	4d	2.a
.	.	.	.	.	.	4c	.
.	.	.	.	.	.	[2f	.
.	.	.	.	.	.	.	4f
=5	=5	=5	=5	=5	=5	=5	=5
0r	0r	0r	0r	1C	2c	2f]	1g
.	.	.	.	.	2c	2e	.
.	.	.	.	2F	2.c	1f	2a
.	.	.	.	2F	.	.	[2cc
.	.	.	.	.	4B-	.	.
=6	=6	=6	=6	=6	=6	=6	=6
0r	0r	0r	0r	2.F	1A	2r	4cc]
.	.	.	.	.	.	.	4b-
.	.	.	.	.	.	2F	4a
.	.	.	.	4E	.	.	4g
.	.	.	.	2D	[1d	2A	4f
.	.	.	.	.	.	.	4e
.	.	.	.	4BB-	.	2B-	2d
.	.	.	.	4C	.	.	.
=7	=7	=7	=7	=7	=7	=7	=7
0r	0r	0r	0r	4D	2d]	2.A	4f
.	.	.	.	4E	.	.	4g
.	.	.	.	1F	4c	.	2a
.	.	.	.	.	4B-	4B-	.
.	.	.	.	.	2A	4c	2f
.	.	.	.	.	.	4d	.
.	.	.	.	2E	2G	[2c	[2g
=8	=8	=8	=8	=8	=8	=8	=8
1r	1F	0r	0r	1D	2A	2c]	4g]
.	.	.	.	.	.	.	4f
.	.	.	.	.	2F	2B	1f
1C	2c	.	.	1C	1G	2c	.
.	2c	.	.	.	.	2G	2e
=9	=9	=9	=9	=9	=9	=9	=9
2F	2.c	2r	0r	0FF	2.F	2.A	1f
2F	.	2c	.	.	.	.	.
.	4B-	.	.	.	4G	4B-	.
2.F	1A	2f	.	.	4A	2c	2r
.	.	.	.	.	4B-	.	.
.	.	2f	.	.	2c	2A	2f
4E	.	.	.	.	.	.	.
=10	=10	=10	=10	=10	=10	=10	=10
2D	2.d	2.f	1r	1BB-	0F	1B-	2f
4BB-	.	.	.	.	.	.	4d
4C	4c	4e	.	.	.	.	4e
4D	2B	2d	1f	2BB-	.	2F	4f
4E	.	.	.	.	.	.	4g
[2F	4A	4c	.	2FF	.	[2c	[2a
.	4G	4B-	.	.	.	.	.
=11	=11	=11	=11	=11	=11	=11	=11
2F]	2F	2A	2cc	2FF	2C	4c]	4a]
.	.	.	.	.	.	4d	4b-
2E	2G	2G	2cc	2C	2.c	2e	2cc
[1F	[1A	2F	2.cc	[1FF	.	[1c	2a
.	.	.	.	.	4B-	.	.
.	.	2c	.	.	4A	.	2f
.	.	.	4b-	.	4G	.	.
=12	=12	=12	=12	=12	=12	=12	=12
1F]	2A]	2f	1a	1FF]	1A	1c]	1cc
.	2c	2f	.	.	.	.	.
1D	2B-	2.f	[1dd	1r	1r	1r	1r
.	2A	.	.	.	.	.	.
.	.	4e	.	.	.	.	.
=13	=13	=13	=13	=13	=13	=13	=13
1G	1B-	2d	2dd]	0r	0r	0r	0r
.	.	2e	4cc	.	.	.	.
.	.	.	4b-	.	.	.	.
2F	1c	2f	2a	.	.	.	.
2E	.	[2g	2g	.	.	.	.
=14	=14	=14	=14	=14	=14	=14	=14
1F	[0c	4g]	2.a	0r	0r	0r	0r
.	.	4f	.	.	.	.	.
.	.	1f	.	.	.	.	.
.	.	.	4f	.	.	.	.
1C	.	.	1g	.	.	.	.
.	.	2e	.	.	.	.	.
=15	=15	=15	=15	=15	=15	=15	=15
0FF	0c]	0f	0a	1r	2r	1r	1r
.	.	.	.	.	2F	.	.
.	.	.	.	1F	4A	1c	2r
.	.	.	.	.	4G	.	.
.	.	.	.	.	4A	.	2f
.	.	.	.	.	4B-	.	.
=16	=16	=16	=16	=16	=16	=16	=16
0r	1r	0r	0r	2F	2c	2f	2a
.	.	.	.	2F	2c	2f	2a
.	2r	.	.	1BB-	1d	1f	1b-
.	2F	.	.	.	.	.	.
=17	=17	=17	=17	=17	=17	=17	=17
1F	4A	2r	2r	0FF	2.c	0f	0a
.	4G	.	.	.	.	.	.
.	4A	2c	2f	.	.	.	.
.	4B-	.	.	.	4B-	.	.
2F	1c	2f	2a	.	4A	.	.
.	.	.	.	.	4G	.	.
2F	.	2f	2a	.	2F	.	.
=18	=18	=18	=18	=18	=18	=18	=18
1BB-	1d	1f	1b-	1r	2r	1r	1r
.	.	.	.	.	2F	.	.
[1FF	2.c	[1f	[1a	1F	4A	2r	2r
.	.	.	.	.	4G	.	.
.	.	.	.	.	4A	2c	2f
.	4B-	.	.	.	4B-	.	.
=19	=19	=19	=19	=19	=19	=19	=19
1FF]	4A	1f]	1a]	2F	2c	2f	2a
.	4G	.	.	.	.	.	.
.	2F	.	.	2F	2c	2f	2a
1r	2r	1r	1r	1BB-	1d	1f	1b-
.	2F	.	.	.	.	.	.
=20	=20	=20	=20	=20	=20	=20	=20
1F	4A	2r	2r	0FF	0c	1f	0a
.	4G	.	.	.	.	.	.
.	4A	2c	2f	.	.	.	.
.	4B-	.	.	.	.	.	.
2F	2c	2f	2a	.	.	2r	.
2F	2F	2f	2a	.	.	2c	.
=21	=21	=21	=21	=21	=21	=21	=21
0C	0G	0e	0cc	2r	2r	4e	2r
.	.	.	.	.	.	4d	.
.	.	.	.	2C	2c	4e	1g
.	.	.	.	.	.	4f	.
.	.	.	.	2E	2.c	2g	.
.	.	.	.	2E	.	[2c	2g
.	.	.	.	.	4B-	.	.
=22	=22	=22	=22	=22	=22	=22	=22
1FF	1F	1c	1cc	1F	4A	2c]	2.a
.	.	.	.	.	4G	.	.
.	.	.	.	.	2F	2f	.
.	.	.	.	.	.	.	4b-
1r	1r	1r	1r	2C	2G	2e	4cc
.	.	.	.	.	.	.	4b-
.	.	.	.	2F	[2A	2c	4a
.	.	.	.	.	.	.	4g
=23	=23	=23	=23	=23	=23	=23	=23
0r	0r	0r	0r	2D	2A]	1d	1f
.	.	.	.	2BB-	2B-	.	.
.	.	.	.	2.F	2A	2c	2.a
.	.	.	.	.	2F	[2f	.
.	.	.	.	4E	.	.	4g
=24	=24	=24	=24	=24	=24	=24	=24
0r	0r	0r	0r	4D	2A	4f]	1.f
.	.	.	.	4C	.	4e	.
.	.	.	.	1BB-	2.B-	4d	.
.	.	.	.	.	.	4c	.
.	.	.	.	.	.	2d	.
.	.	.	.	.	4A	.	.
.	.	.	.	2C	4G	[2c	2e
.	.	.	.	.	4F	.	.
=25	=25	=25	=25	=25	=25	=25	=25
1r	1r	2r	1r	1GG	1G	2c]	1d
.	.	2d	.	.	.	2B	.
2r	2r	4e	2r	[1C	[1E	2.c	1c
.	.	4d	.	.	.	.	.
2C	2c	4e	[2g	.	.	.	.
.	.	4f	.	.	.	8B-	.
.	.	.	.	.	.	8A	.
=26	=26	=26	=26	=26	=26	=26	=26
2E	2c	2g	2g]	1C]	1E]	1G	2r
2E	2c	1c	2g	.	.	.	2cc
1F	2.A	.	2a	2r	2r	2r	2cc
.	.	2f	[2cc	2FF	2A	2c	2cc
.	4B-	.	.	.	.	.	.
=27	=27	=27	=27	=27	=27	=27	=27
2C	1c	2e	4cc]	2AA	2A	2c	1a
.	.	.	4b-	.	.	.	.
2F	.	2c	4a	2AA	2F	2c	.
.	.	.	4g	.	.	.	.
2D	1d	2r	2f	1BB-	2.F	[1f	2.dd
2BB-	.	2f	[2b-	.	.	.	.
.	.	.	.	.	4G	.	4b-
=28	=28	=28	=28	=28	=28	=28	=28
1F	1c	2f	2b-]	2FF	1A	2f]	2cc
.	.	2f	2a	2F	.	2c	2f
1BB-	1B-	[1f	1dd	2D	2B-	2r	2r
.	.	.	.	2BB-	[2F	2f	[2b-
=29	=29	=29	=29	=29	=29	=29	=29
2FF	1c	2f]	1cc	1F	4F]	2f	2b-]
.	.	.	.	.	4G	.	.
2F	.	2c	.	.	2A	2f	2a
2D	2r	2r	2r	1BB-	1B-	[1f	1dd
2BB-	[2F	2f	[2b-	.	.	.	.
=30	=30	=30	=30	=30	=30	=30	=30
1F	4F]	2f	2b-]	2FF	2c	2f]	1cc
.	4G	.	.	.	.	.	.
.	2A	2f	2a	2F	2.F	2c	.
1BB-	1B-	[1f	1dd	2D	.	2r	1b-
.	.	.	.	.	4E	.	.
.	.	.	.	2BB-	4F	2f	.
.	.	.	.	.	4G	.	.
=31	=31	=31	=31	=31	=31	=31	=31
1FF	0c	2f]	0cc	1F	1A	2f	2a
.	.	2.c	.	.	.	2f	2f
1C	.	.	.	1C	1G	2f	1g
.	.	4d	.	.	.	.	.
.	.	2e	.	.	.	2e	.
=32	=32	=32	=32	=32	=32	=32	=32
0FF	0c	0c	0cc	0F	0F	0f	0a
*-	*-	*-	*-	*-	*-	*-	*-
!!!CDT: 1525/^1526/-1594/2/2
!!!OCY: Italia
!!!AGN: Mass (Parody)
!!!AST: renaissance, vocal
!!!ASW: Motet 1572 (Palestrina)
!!!PWK: Masses, Book 8vce
!!!RNB: Cadence finals: C
!!!YOR: Le Opere Complete, v. 30, p. 1
!!!YOO: Rome, Italy: Fratelli Scalera
!!!END: 1992//
!!!EED: John Miller
!!!YEC: Copyright 2000, John Miller
!!!YEN: United States of America
!!!YEM: Rights to all derivative electronic formats reserved.
!!!YEM: Refer to licensing agreement for further details.
!!!YEM: This file must be accompanied by the licensing agreement.
!!!YEM: A copy of the licensing agreement may be found at http://www.music-cog.ohio-state.edu/HumdrumDatabases/Palestrina/license.txt
!!!EMD: converted to Humdrum by Bret Aarden
